X: 22
T:TRAN BRANE SHIL BANDOTING
% NOTTINGHAM MUSIC DATABASE
S:TRAD, ARR PHIL ROWE
M:6/8
K:G
D|"G"DDBD "D"FAD|"D"FDF "A7"E2E|"D"F2A "G"BAB|"C"G2E "G"DCB|"AM"A3 "E7"E2D|
"F#"A2A "G"G2B|"DM"D2D "D"D2D|"G"G2B "D"B2B|"AM"E2E G2E|"D"F2F "D/"F/2G/2F/2G/2|"D"A/2B/2D/2F/2 "E"A2|"AM"A3/2F/2 F/2E/2C/2A/2 "D"F/2E/2D/2F/2 "A"AG/2B/2 "A7"F/2G/2A/2F/2|"D"D/2C/2D/2E/2 FE/2G/2|"D"FA A:|>

----- Generating with seed: ""b2d gab|<"..........

